X: 1
T: Bornholm, marsch frn Sexdrega
O: Sexdrega, Vstergtland
S: utlrd av Eivor Erkas som har den efter Ditte Andersson
R: Marsch
M: 4/4
N: Vet ej varfr den kallas Bornholm.
Z: abc-transkription av Nils L, 2008-06-04. 
N: Bindningarna r jag litet osker p s ta dem med en nypa salt.
N: Kunde ej hitta denna marsch i mina Sexdreganoter. Ngon som vet vilket nummer den har
K: D
L: 1/8
(FG) | A2 A2 A2 (Bc) | d4> A4 | B2 d2 A2 d2 | G2 (AG) F2 A2 | (Bd)cd (Ad)cd |
((3ABA) ((3GAG) F2 {A}d2 | c2 d2 e2 f2 | g6 fe | {fg}f2 (ed) c2>d2 | d6 :: 
de | f2 f2 f2 (ed) | e2 f^g a2 ((3ABc) | d2 d2 d2 cB | c2 f2 e2 dc | B2 B2 B2 cd | A2>G2 F2 F2 | 
G2 G2 (GB)AG | F2>E2 D2 A2 | B2 d2 A2 d2 | G2 AG F2 A2 | (Bd)cd (Ad)cd | 
((3ABA) ((3GAG) F2 d2 | c2 d2 e2 f2 | g6 fe | f2 ed c2>d2 | d6 :|
